packages/bezier-icons/icons/button-route.svg

<svg width="24" height="24" viewBox="0 0 24 24" fill="none" xmlns="http://www.w3.org/2000/svg">
<path d="M4 9V16H7V18H3.5C2.67157 18 2 17.3284 2 16.5V3H4V7H7V9H4Z" fill="#313234"/>
<path d="M9.5 4C8.67157 4 8 4.67157 8 5.5V9.5C8 10.3284 8.67157 11 9.5 11H20.5C21.3284 11 22 10.3284 22 9.5V5.5C22 4.67157 21.3284 4 20.5 4H9.5Z" fill="#313234"/>
<path d="M9.5 13C8.67157 13 8 13.6716 8 14.5V18.5C8 19.3284 8.67157 20 9.5 20H20.5C21.3284 20 22 19.3284 22 18.5V14.5C22 13.6716 21.3284 13 20.5 13H9.5Z" fill="#313234"/>
</svg>

<svg xmlns="http://www.w3.org/2000/svg" width="24" height="24" fill="none" viewBox="0 0 24 24"><path fill="#313234" d="M4 9v7h3v2H3.5A1.5 1.5 0 0 1 2 16.5V3h2v4h3v2zM9.5 4A1.5 1.5 0 0 0 8 5.5v4A1.5 1.5 0 0 0 9.5 11h11A1.5 1.5 0 0 0 22 9.5v-4A1.5 1.5 0 0 0 20.5 4zM9.5 13A1.5 1.5 0 0 0 8 14.5v4A1.5 1.5 0 0 0 9.5 20h11a1.5 1.5 0 0 0 1.5-1.5v-4a1.5 1.5 0 0 0-1.5-1.5z"/></svg>
